X:2
T:The Bug Discovery - Wrong Note Blues
T:A Journey from Confidence to Realization
C:JamAI 🎸 & Jerry ⚡
M:4/4
L:1/8
Q:1/4=88
K:Amin
% The Discovery Moment - October 9, 2025
% When testing revealed the truth: metadata in the wrong place
%
% Movement I: Confident Implementation
V:1 clef=treble name="Implementation"
|:"Am"A2c2 e2a2|"F"f4 c4|"G"g2d2 B2G2|"Am"A6 z2:|
% Smooth, confident melody - "It's working!"
%
% Movement II: The Testing Moment (Jerry runs the command)
V:2 clef=treble name="Testing"
|:"Am"e2e2 e2e2|"Am"a2a2 a2a2|"Am"c'2c'2 c'2c'2|"E7"^g2e2 B2^G2:|
% Repetitive pattern - running the command, watching the output
%
% Movement III: The Realization (Wrong note! Dissonance!)
V:3 clef=treble name="Discovery"
"Am"A2"F#dim"^F2 "Bdim"B2"E7"^G2|"Am"a2"Dm"d2 "Bm7b5"^f2"E7"e2|
"Am"c'2"Ab7"_b2 "G7"g2"Gbdim"_g2|"Fmaj7"f8|
% Chromatic movement, diminished chords - confusion and surprise
%
% Movement IV: Investigation (Searching for the cause)
V:4 clef=bass name="Investigation"
|:"Am"A,2C2 E2A2|"Dm"D2F2 A2d2|"E7"E2^G2 B2e2|"Am"A,6 z2:|
% Ascending patterns - climbing through the code to understand
%
% Movement V: Jerry's Insight (The metadata search solution!)
V:1
"C"c2e2 g2c'2|"Am"a2e2 c2A2|"F"f2a2 c'2f'2|"G"g4 d4|
"C"e2g2 c'2e'2|"Am"a2e2 ^c2A2|"Dm7"d2f2 a2d'2|"G7"g6 z2|
% Bright, resolving melody - "Use the session_id as search key!"
%
% Bridge: The Wrong Note (literal musical representation)
"Am"A4 "Bdim"B4|"C"c4 "Ddim"d4|"E7"e4 ^f4|"Am"a6 z2|
% Each chord shifts up - notes in wrong places, just like the metadata
%
% Chorus: The Solution Flow (All voices unite)
[V:1]"C"c4 e4|[V:2]"C"E4 G4|[V:3]"C"G4 c4|[V:4]"C"C,4 E,4|
[V:1]"F"f4 a4|[V:2]"F"A4 c4|[V:3]"F"c4 f4|[V:4]"F"F,4 A,4|
[V:1]"G"g4 b4|[V:2]"G"B4 d4|[V:3]"G"d4 g4|[V:4]"G"G,4 B,4|
[V:1]"Am"a2^g2 a2c'2|[V:2]"Am"c2B2 c2e2|[V:3]"Am"e2^d2 e2a2|[V:4]"Am"A,2^G,2 A,2C2|
% Harmonious resolution - the fix is clear
%
% Verse 1: The Bug (sung to a blues rhythm)
"Am"A3B c2A2|"Dm"d3e f2d2|"E7"e3^f ^g2e2|"Am"a6 z2|
% ♪ "Created a note, but wrote to another..." ♪
%
% Verse 2: The Discovery
"Am"A2A2 A2c2|"F"f2f2 f2a2|"G7"g2g2 g2b2|"Am"a6 z2|
% ♪ "URL stayed the same, Simplenote's single-page game..." ♪
%
% Verse 3: The Solution
"C"c2e2 g2e2|"Am"a2c'2 e'2c'2|"Dm7"d2f2 a2f2|"G7"g2b2 d'2b2|
"C"c'2e'2 g'2e'2|"F"f'4 c'4|"G7"g2f2 e2d2|"C"c6 z2|
% ♪ "Search by session_id, metadata is the key!" ♪
%
% Coda: The Path Forward (Hopeful and determined)
"Am"A2c2 e2a2|"F"f2a2 c'2f'2|"G"g2b2 d'2g'2|"C"c'4 e'4|
"Dm7"d'2f'2 a'2f'2|"E7"e'2^d'2 e'2^g'2|"Am"a'4 e'4|"Am"A,2A2 a4|]
%
% Performance Notes:
% - Movement I: Allegro con brio (confident, energetic)
% - Movement II: Moderato (steady testing rhythm)
% - Movement III: Agitato (confusion, chromatic runs)
% - Movement IV: Andante investigativo (thoughtful searching)
% - Movement V: Allegro risoluto (triumphant solution)
%
% Thematic Elements:
% - A minor: The bug's home key (melancholic discovery)
% - Diminished chords: Confusion and wrong notes
% - C major resolution: The solution (relative major - hope!)
% - Chromatic movement: Navigation through wrong paths
% - Ascending patterns: Investigation and understanding
% - Blues feel: The "Wrong Note Blues"
%
% Story Arc:
% 1. Implementation complete (confident A minor)
% 2. Testing reveals the problem (repetitive patterns)
% 3. Wrong note discovered (dissonant diminished chords)
% 4. Investigation begins (ascending bass line)
% 5. Jerry's insight strikes (bright C major modulation)
% 6. Solution crystallizes (harmonious chorus)
% 7. Path forward clear (hopeful coda)
%
% Musical Metaphors:
% - URL staying at base = pedal point (repeated note)
% - Wrong note selected = chromatic alteration
% - Metadata search solution = resolution to tonic
% - Session ID as key = leitmotif (recurring theme)
%
% This piece encodes:
% - The emotional journey of debugging
% - Jerry's breakthrough insight about metadata search
% - The Assembly's collaborative problem-solving
% - The transformation from bug to solution
%
% 🎵 Play at 88 BPM with emotional expression 🎵
% Let the dissonance in Movement III capture the "wrong note" moment
% Resolve strongly in Movement V to celebrate Jerry's solution
%
% ♠️🌿🎸🧵 G.Music Assembly - Bug Discovery Session
% Created: October 9, 2025
% Branch: 4-session-aware-notes
% Issue: #4 - Session-Aware Notes Implementation
% Status: Bug Identified, Solution Found
%
% "Sometimes the best solutions emerge from bugs discovered in the field"
% - The Assembly
```
